Newaita-dark/apps/32/firewall-config.svg

<?xml version="1.0" encoding="UTF-8"?>
<svg xmlns="http://www.w3.org/2000/svg" xmlns:xlink="http://www.w3.org/1999/xlink" width="32pt" height="32pt" viewBox="0 0 32 32" version="1.1">
<defs>
<linearGradient id="linear0" gradientUnits="userSpaceOnUse" x1="254" y1="233.5" x2="254" y2="254.666672" gradientTransform="matrix(0.062506,0,0,0.062506,-0.00000381506,13.438785)">
<stop offset="0" style="stop-color:rgb(0%,0%,0%);stop-opacity:0.27451;"/>
<stop offset="1" style="stop-color:rgb(0%,0%,0%);stop-opacity:0;"/>
</linearGradient>
<radialGradient id="radial0" gradientUnits="userSpaceOnUse" cx="450.908936" cy="189.579361" fx="450.908936" fy="189.579361" r="21.166656" gradientTransform="matrix(0.00000017417,-0.0781325,-0.140638,-0.000000101539,53.12293,63.595333)">
<stop offset="0" style="stop-color:rgb(0%,0%,0%);stop-opacity:0.313725;"/>
<stop offset="0.222222" style="stop-color:rgb(0%,0%,0%);stop-opacity:0.27451;"/>
<stop offset="1" style="stop-color:rgb(0%,0%,0%);stop-opacity:0;"/>
</radialGradient>
<radialGradient id="radial1" gradientUnits="userSpaceOnUse" cx="450.908936" cy="189.579361" fx="450.908936" fy="189.579361" r="21.166656" gradientTransform="matrix(-0.00000017417,0.0781325,0.140638,0.000000101539,-21.20452,-7.527479)">
<stop offset="0" style="stop-color:rgb(0%,0%,0%);stop-opacity:0.313725;"/>
<stop offset="0.222222" style="stop-color:rgb(0%,0%,0%);stop-opacity:0.27451;"/>
<stop offset="1" style="stop-color:rgb(0%,0%,0%);stop-opacity:0;"/>
</radialGradient>
<radialGradient id="radial2" gradientUnits="userSpaceOnUse" cx="450.908936" cy="189.579361" fx="450.908936" fy="189.579361" r="21.166656" gradientTransform="matrix(-0.00000017417,-0.0781325,0.140638,-0.000000101539,-21.20452,63.595333)">
<stop offset="0" style="stop-color:rgb(0%,0%,0%);stop-opacity:0.313725;"/>
<stop offset="0.222222" style="stop-color:rgb(0%,0%,0%);stop-opacity:0.27451;"/>
<stop offset="1" style="stop-color:rgb(0%,0%,0%);stop-opacity:0;"/>
</radialGradient>
<radialGradient id="radial3" gradientUnits="userSpaceOnUse" cx="450.908936" cy="189.579361" fx="450.908936" fy="189.579361" r="21.166656" gradientTransform="matrix(0.00000017417,0.0781325,-0.140638,0.000000101539,53.122929,-7.527479)">
<stop offset="0" style="stop-color:rgb(0%,0%,0%);stop-opacity:0.313725;"/>
<stop offset="0.222222" style="stop-color:rgb(0%,0%,0%);stop-opacity:0.27451;"/>
<stop offset="1" style="stop-color:rgb(0%,0%,0%);stop-opacity:0;"/>
</radialGradient>
<linearGradient id="linear1" gradientUnits="userSpaceOnUse" x1="254" y1="233.5" x2="254" y2="-168.666656" gradientTransform="matrix(0.062506,0,0,0.062506,0,13.438783)">
<stop offset="0" style="stop-color:rgb(37.647059%,49.019608%,54.509804%);stop-opacity:1;"/>
<stop offset="1" style="stop-color:rgb(47.058824%,56.470588%,61.176471%);stop-opacity:1;"/>
</linearGradient>
<linearGradient id="linear2" gradientUnits="userSpaceOnUse" x1="960" y1="1735.118164" x2="960" y2="175.118134" gradientTransform="matrix(0.016538,0,0,0.016538,0,0)">
<stop offset="0" style="stop-color:rgb(55.294118%,43.137255%,38.823529%);stop-opacity:1;"/>
<stop offset="1" style="stop-color:rgb(100%,43.921569%,26.27451%);stop-opacity:1;"/>
</linearGradient>
</defs>
<g id="surface3">
<path style=" stroke:none;fill-rule:nonzero;fill:url(#linear0);" d="M 5.125 28.035156 L 26.792969 28.035156 L 26.792969 29.355469 L 5.125 29.355469 Z M 5.125 28.035156 "/>
<path style=" stroke:none;fill-rule:nonzero;fill:url(#radial0);" d="M 26.792969 28.035156 L 29.4375 28.035156 L 29.4375 26.710938 L 26.792969 26.710938 Z M 26.792969 28.035156 "/>
<path style=" stroke:none;fill-rule:nonzero;fill:url(#radial1);" d="M 5.125 28.035156 L 2.480469 28.035156 L 2.480469 29.355469 L 5.125 29.355469 Z M 5.125 28.035156 "/>
<path style=" stroke:none;fill-rule:nonzero;fill:url(#radial2);" d="M 5.125 28.035156 L 2.480469 28.035156 L 2.480469 26.710938 L 5.125 26.710938 Z M 5.125 28.035156 "/>
<path style=" stroke:none;fill-rule:nonzero;fill:url(#radial3);" d="M 26.792969 28.035156 L 29.4375 28.035156 L 29.4375 29.355469 L 26.792969 29.355469 Z M 26.792969 28.035156 "/>
<path style=" stroke:none;fill-rule:nonzero;fill:url(#linear1);" d="M 3.308594 2.894531 L 28.445312 2.894531 C 29.175781 2.894531 29.769531 3.488281 29.769531 4.21875 L 29.769531 26.710938 C 29.769531 27.441406 29.175781 28.035156 28.445312 28.035156 L 3.308594 28.035156 C 2.578125 28.035156 1.984375 27.441406 1.984375 26.710938 L 1.984375 4.21875 C 1.984375 3.488281 2.578125 2.894531 3.308594 2.894531 Z M 3.308594 2.894531 "/>
<path style=" stroke:none;fill-rule:nonzero;fill:rgb(100%,100%,100%);fill-opacity:0.392157;" d="M 3.308594 2.894531 C 2.574219 2.894531 1.984375 3.484375 1.984375 4.21875 L 1.984375 4.550781 C 1.984375 3.816406 2.574219 3.226562 3.308594 3.226562 L 28.445312 3.226562 C 29.179688 3.226562 29.769531 3.816406 29.769531 4.550781 L 29.769531 4.21875 C 29.769531 3.484375 29.179688 2.894531 28.445312 2.894531 Z M 3.308594 2.894531 "/>
<path style=" stroke:none;fill-rule:nonzero;fill:rgb(0%,0%,0%);fill-opacity:0.235294;" d="M 3.308594 28.035156 C 2.574219 28.035156 1.984375 27.445312 1.984375 26.710938 L 1.984375 26.378906 C 1.984375 27.113281 2.574219 27.703125 3.308594 27.703125 L 28.445312 27.703125 C 29.179688 27.703125 29.769531 27.113281 29.769531 26.378906 L 29.769531 26.710938 C 29.769531 27.445312 29.179688 28.035156 28.445312 28.035156 Z M 3.308594 28.035156 "/>
<path style=" stroke:none;fill-rule:nonzero;fill:rgb(12.941177%,12.941177%,12.941177%);fill-opacity:1;" d="M 3.308594 2.800781 C 2.523438 2.800781 1.890625 3.4375 1.890625 4.21875 L 1.890625 26.710938 C 1.890625 27.496094 2.523438 28.128906 3.308594 28.128906 L 28.445312 28.128906 C 29.230469 28.128906 29.863281 27.496094 29.863281 26.710938 L 29.863281 4.21875 C 29.863281 3.4375 29.230469 2.800781 28.445312 2.800781 Z M 3.308594 2.988281 L 28.445312 2.988281 C 29.128906 2.988281 29.675781 3.535156 29.675781 4.21875 L 29.675781 26.710938 C 29.675781 27.394531 29.128906 27.941406 28.445312 27.941406 L 3.308594 27.941406 C 2.625 27.941406 2.078125 27.394531 2.078125 26.710938 L 2.078125 4.21875 C 2.078125 3.535156 2.625 2.988281 3.308594 2.988281 Z M 3.308594 2.988281 "/>
<path style=" stroke:none;fill-rule:nonzero;fill:url(#linear2);" d="M 1.984375 4.21875 L 1.984375 10.835938 L 5.953125 10.835938 C 6.6875 10.835938 7.277344 10.253906 7.277344 9.535156 L 7.277344 5.519531 C 7.277344 4.800781 6.6875 4.21875 5.953125 4.21875 Z M 9.921875 4.21875 C 9.191406 4.21875 8.601562 4.800781 8.601562 5.519531 L 8.601562 9.535156 C 8.601562 10.253906 9.191406 10.835938 9.921875 10.835938 L 21.832031 10.835938 C 22.5625 10.835938 23.152344 10.253906 23.152344 9.535156 L 23.152344 5.519531 C 23.152344 4.800781 22.5625 4.21875 21.832031 4.21875 Z M 25.800781 4.21875 C 25.066406 4.21875 24.476562 4.800781 24.476562 5.519531 L 24.476562 9.535156 C 24.476562 10.253906 25.066406 10.835938 25.800781 10.835938 L 29.769531 10.835938 L 29.769531 4.21875 Z M 1.984375 12.15625 L 1.984375 18.773438 L 13.890625 18.773438 C 14.625 18.773438 15.214844 18.191406 15.214844 17.472656 L 15.214844 13.457031 C 15.214844 12.738281 14.625 12.15625 13.890625 12.15625 Z M 17.859375 12.15625 C 17.128906 12.15625 16.539062 12.738281 16.539062 13.457031 L 16.539062 17.472656 C 16.539062 18.191406 17.128906 18.773438 17.859375 18.773438 L 29.769531 18.773438 L 29.769531 12.15625 Z M 1.984375 20.09375 L 1.984375 26.710938 L 5.953125 26.710938 C 6.6875 26.710938 7.277344 26.132812 7.277344 25.410156 L 7.277344 21.394531 C 7.277344 20.675781 6.6875 20.09375 5.953125 20.09375 Z M 9.921875 20.09375 C 9.191406 20.09375 8.601562 20.675781 8.601562 21.394531 L 8.601562 25.410156 C 8.601562 26.132812 9.191406 26.710938 9.921875 26.710938 L 21.832031 26.710938 C 22.5625 26.710938 23.152344 26.132812 23.152344 25.410156 L 23.152344 21.394531 C 23.152344 20.675781 22.5625 20.09375 21.832031 20.09375 Z M 25.800781 20.09375 C 25.066406 20.09375 24.476562 20.675781 24.476562 21.394531 L 24.476562 25.410156 C 24.476562 26.132812 25.066406 26.710938 25.800781 26.710938 L 29.769531 26.710938 L 29.769531 20.09375 Z M 25.800781 20.09375 "/>
<path style=" stroke:none;fill-rule:nonzero;fill:rgb(100%,100%,100%);fill-opacity:0.392157;" d="M 1.984375 4.21875 L 1.984375 4.550781 L 5.953125 4.550781 C 6.6875 4.550781 7.277344 5.128906 7.277344 5.851562 L 7.277344 5.519531 C 7.277344 4.800781 6.6875 4.21875 5.953125 4.21875 Z M 9.921875 4.21875 C 9.191406 4.21875 8.601562 4.800781 8.601562 5.519531 L 8.601562 5.851562 C 8.601562 5.128906 9.191406 4.550781 9.921875 4.550781 L 21.832031 4.550781 C 22.5625 4.550781 23.152344 5.128906 23.152344 5.851562 L 23.152344 5.519531 C 23.152344 4.800781 22.5625 4.21875 21.832031 4.21875 Z M 25.800781 4.21875 C 25.066406 4.21875 24.476562 4.800781 24.476562 5.519531 L 24.476562 5.851562 C 24.476562 5.128906 25.066406 4.550781 25.800781 4.550781 L 29.769531 4.550781 L 29.769531 4.21875 Z M 1.984375 12.15625 L 1.984375 12.488281 L 13.890625 12.488281 C 14.625 12.488281 15.214844 13.066406 15.214844 13.789062 L 15.214844 13.457031 C 15.214844 12.738281 14.625 12.15625 13.890625 12.15625 Z M 17.859375 12.15625 C 17.128906 12.15625 16.539062 12.738281 16.539062 13.457031 L 16.539062 13.789062 C 16.539062 13.066406 17.128906 12.488281 17.859375 12.488281 L 29.769531 12.488281 L 29.769531 12.15625 Z M 1.984375 20.09375 L 1.984375 20.425781 L 5.953125 20.425781 C 6.6875 20.425781 7.277344 21.007812 7.277344 21.726562 L 7.277344 21.394531 C 7.277344 20.675781 6.6875 20.09375 5.953125 20.09375 Z M 9.921875 20.09375 C 9.191406 20.09375 8.601562 20.675781 8.601562 21.394531 L 8.601562 21.726562 C 8.601562 21.007812 9.191406 20.425781 9.921875 20.425781 L 21.832031 20.425781 C 22.5625 20.425781 23.152344 21.007812 23.152344 21.726562 L 23.152344 21.394531 C 23.152344 20.675781 22.5625 20.09375 21.832031 20.09375 Z M 25.800781 20.09375 C 25.066406 20.09375 24.476562 20.675781 24.476562 21.394531 L 24.476562 21.726562 C 24.476562 21.007812 25.066406 20.425781 25.800781 20.425781 L 29.769531 20.425781 L 29.769531 20.09375 Z M 25.800781 20.09375 "/>
<path style=" stroke:none;fill-rule:nonzero;fill:rgb(0%,0%,0%);fill-opacity:0.235294;" d="M 1.984375 26.6875 L 1.984375 26.355469 L 5.953125 26.355469 C 6.6875 26.355469 7.277344 25.777344 7.277344 25.058594 L 7.277344 25.386719 C 7.277344 26.109375 6.6875 26.6875 5.953125 26.6875 Z M 9.921875 26.6875 C 9.191406 26.6875 8.601562 26.109375 8.601562 25.386719 L 8.601562 25.058594 C 8.601562 25.777344 9.191406 26.355469 9.921875 26.355469 L 21.832031 26.355469 C 22.5625 26.355469 23.152344 25.777344 23.152344 25.058594 L 23.152344 25.386719 C 23.152344 26.109375 22.5625 26.6875 21.832031 26.6875 Z M 25.800781 26.6875 C 25.066406 26.6875 24.476562 26.109375 24.476562 25.386719 L 24.476562 25.058594 C 24.476562 25.777344 25.066406 26.355469 25.800781 26.355469 L 29.769531 26.355469 L 29.769531 26.6875 Z M 1.984375 18.75 L 1.984375 18.417969 L 13.890625 18.417969 C 14.625 18.417969 15.214844 17.839844 15.214844 17.117188 L 15.214844 17.449219 C 15.214844 18.167969 14.625 18.75 13.890625 18.75 Z M 17.859375 18.75 C 17.128906 18.75 16.539062 18.167969 16.539062 17.449219 L 16.539062 17.117188 C 16.539062 17.839844 17.128906 18.417969 17.859375 18.417969 L 29.769531 18.417969 L 29.769531 18.75 Z M 1.984375 10.8125 L 1.984375 10.480469 L 5.953125 10.480469 C 6.6875 10.480469 7.277344 9.902344 7.277344 9.179688 L 7.277344 9.511719 C 7.277344 10.230469 6.6875 10.8125 5.953125 10.8125 Z M 9.921875 10.8125 C 9.191406 10.8125 8.601562 10.230469 8.601562 9.511719 L 8.601562 9.179688 C 8.601562 9.902344 9.191406 10.480469 9.921875 10.480469 L 21.832031 10.480469 C 22.5625 10.480469 23.152344 9.902344 23.152344 9.179688 L 23.152344 9.511719 C 23.152344 10.230469 22.5625 10.8125 21.832031 10.8125 Z M 25.800781 10.8125 C 25.066406 10.8125 24.476562 10.230469 24.476562 9.511719 L 24.476562 9.179688 C 24.476562 9.902344 25.066406 10.480469 25.800781 10.480469 L 29.769531 10.480469 L 29.769531 10.8125 Z M 25.800781 10.8125 "/>
<path style=" stroke:none;fill-rule:nonzero;fill:rgb(12.941177%,12.941177%,12.941177%);fill-opacity:1;" d="M 1.984375 4.125 C 1.933594 4.125 1.890625 4.167969 1.890625 4.21875 L 1.890625 10.835938 C 1.890625 10.886719 1.933594 10.929688 1.984375 10.929688 L 5.953125 10.929688 C 6.734375 10.929688 7.371094 10.304688 7.371094 9.535156 L 7.371094 5.519531 C 7.371094 4.746094 6.734375 4.125 5.953125 4.125 Z M 9.921875 4.125 C 9.140625 4.125 8.507812 4.746094 8.507812 5.519531 L 8.507812 9.535156 C 8.507812 10.304688 9.140625 10.929688 9.921875 10.929688 L 21.832031 10.929688 C 22.613281 10.929688 23.246094 10.304688 23.246094 9.535156 L 23.246094 5.519531 C 23.246094 4.746094 22.613281 4.125 21.832031 4.125 Z M 25.800781 4.125 C 25.015625 4.125 24.382812 4.746094 24.382812 5.519531 L 24.382812 9.535156 C 24.382812 10.304688 25.015625 10.929688 25.800781 10.929688 L 29.769531 10.929688 C 29.820312 10.929688 29.863281 10.886719 29.863281 10.835938 L 29.863281 4.21875 C 29.863281 4.167969 29.820312 4.125 29.769531 4.125 Z M 2.078125 4.3125 L 5.953125 4.3125 C 6.636719 4.3125 7.183594 4.851562 7.183594 5.519531 L 7.183594 9.535156 C 7.183594 10.203125 6.636719 10.742188 5.953125 10.742188 L 2.078125 10.742188 Z M 9.921875 4.3125 L 21.832031 4.3125 C 22.515625 4.3125 23.058594 4.851562 23.058594 5.519531 L 23.058594 9.535156 C 23.058594 10.203125 22.515625 10.742188 21.832031 10.742188 L 9.921875 10.742188 C 9.238281 10.742188 8.695312 10.203125 8.695312 9.535156 L 8.695312 5.519531 C 8.695312 4.851562 9.238281 4.3125 9.921875 4.3125 Z M 25.800781 4.3125 L 29.675781 4.3125 L 29.675781 10.742188 L 25.800781 10.742188 C 25.117188 10.742188 24.570312 10.203125 24.570312 9.535156 L 24.570312 5.519531 C 24.570312 4.851562 25.117188 4.3125 25.800781 4.3125 Z M 1.984375 12.0625 C 1.933594 12.0625 1.890625 12.105469 1.890625 12.15625 L 1.890625 18.773438 C 1.890625 18.824219 1.933594 18.867188 1.984375 18.867188 L 13.890625 18.867188 C 14.675781 18.867188 15.308594 18.246094 15.308594 17.472656 L 15.308594 13.457031 C 15.308594 12.6875 14.675781 12.0625 13.890625 12.0625 Z M 17.859375 12.0625 C 17.078125 12.0625 16.445312 12.6875 16.445312 13.457031 L 16.445312 17.472656 C 16.445312 18.246094 17.078125 18.867188 17.859375 18.867188 L 29.769531 18.867188 C 29.820312 18.867188 29.863281 18.824219 29.863281 18.773438 L 29.863281 12.15625 C 29.863281 12.105469 29.820312 12.0625 29.769531 12.0625 Z M 2.078125 12.25 L 13.890625 12.25 C 14.574219 12.25 15.121094 12.789062 15.121094 13.457031 L 15.121094 17.472656 C 15.121094 18.140625 14.574219 18.679688 13.890625 18.679688 L 2.078125 18.679688 Z M 17.859375 12.25 L 29.675781 12.25 L 29.675781 18.679688 L 17.859375 18.679688 C 17.175781 18.679688 16.632812 18.140625 16.632812 17.472656 L 16.632812 13.457031 C 16.632812 12.789062 17.175781 12.25 17.859375 12.25 Z M 1.984375 20 C 1.933594 20 1.890625 20.042969 1.890625 20.09375 L 1.890625 26.710938 C 1.890625 26.761719 1.933594 26.804688 1.984375 26.804688 L 5.953125 26.804688 C 6.734375 26.804688 7.371094 26.183594 7.371094 25.410156 L 7.371094 21.394531 C 7.371094 20.625 6.734375 20 5.953125 20 Z M 9.921875 20 C 9.140625 20 8.507812 20.625 8.507812 21.394531 L 8.507812 25.410156 C 8.507812 26.183594 9.140625 26.804688 9.921875 26.804688 L 21.832031 26.804688 C 22.613281 26.804688 23.246094 26.183594 23.246094 25.410156 L 23.246094 21.394531 C 23.246094 20.625 22.613281 20 21.832031 20 Z M 25.800781 20 C 25.015625 20 24.382812 20.625 24.382812 21.394531 L 24.382812 25.410156 C 24.382812 26.183594 25.015625 26.804688 25.800781 26.804688 L 29.769531 26.804688 C 29.820312 26.804688 29.863281 26.761719 29.863281 26.710938 L 29.863281 20.09375 C 29.863281 20.042969 29.820312 20 29.769531 20 Z M 2.078125 20.1875 L 5.953125 20.1875 C 6.636719 20.1875 7.183594 20.726562 7.183594 21.394531 L 7.183594 25.410156 C 7.183594 26.078125 6.636719 26.617188 5.953125 26.617188 L 2.078125 26.617188 Z M 9.921875 20.1875 L 21.832031 20.1875 C 22.515625 20.1875 23.058594 20.726562 23.058594 21.394531 L 23.058594 25.410156 C 23.058594 26.078125 22.515625 26.617188 21.832031 26.617188 L 9.921875 26.617188 C 9.238281 26.617188 8.695312 26.078125 8.695312 25.410156 L 8.695312 21.394531 C 8.695312 20.726562 9.238281 20.1875 9.921875 20.1875 Z M 25.800781 20.1875 L 29.675781 20.1875 L 29.675781 26.617188 L 25.800781 26.617188 C 25.117188 26.617188 24.570312 26.078125 24.570312 25.410156 L 24.570312 21.394531 C 24.570312 20.726562 25.117188 20.1875 25.800781 20.1875 Z M 25.800781 20.1875 "/>
</g>
</svg>

<svg xmlns="http://www.w3.org/2000/svg" width="32pt" height="32pt" viewBox="0 0 32 32"><defs><linearGradient id="a" gradientUnits="userSpaceOnUse" x1="254" y1="233.5" x2="254" y2="254.667" gradientTransform="matrix(.0625 0 0 .0625 0 13.439)"><stop offset="0" stop-opacity=".275"/><stop offset="1" stop-opacity="0"/></linearGradient><radialGradient id="b" gradientUnits="userSpaceOnUse" cx="450.909" cy="189.579" fx="450.909" fy="189.579" r="21.167" gradientTransform="matrix(0 -.07813 -.14064 0 53.123 63.595)"><stop offset="0" stop-opacity=".314"/><stop offset=".222" stop-opacity=".275"/><stop offset="1" stop-opacity="0"/></radialGradient><radialGradient id="c" gradientUnits="userSpaceOnUse" cx="450.909" cy="189.579" fx="450.909" fy="189.579" r="21.167" gradientTransform="matrix(0 .07813 .14064 0 -21.205 -7.527)"><stop offset="0" stop-opacity=".314"/><stop offset=".222" stop-opacity=".275"/><stop offset="1" stop-opacity="0"/></radialGradient><radialGradient id="d" gradientUnits="userSpaceOnUse" cx="450.909" cy="189.579" fx="450.909" fy="189.579" r="21.167" gradientTransform="matrix(0 -.07813 .14064 0 -21.205 63.595)"><stop offset="0" stop-opacity=".314"/><stop offset=".222" stop-opacity=".275"/><stop offset="1" stop-opacity="0"/></radialGradient><radialGradient id="e" gradientUnits="userSpaceOnUse" cx="450.909" cy="189.579" fx="450.909" fy="189.579" r="21.167" gradientTransform="matrix(0 .07813 -.14064 0 53.123 -7.527)"><stop offset="0" stop-opacity=".314"/><stop offset=".222" stop-opacity=".275"/><stop offset="1" stop-opacity="0"/></radialGradient><linearGradient id="f" gradientUnits="userSpaceOnUse" x1="254" y1="233.5" x2="254" y2="-168.667" gradientTransform="matrix(.0625 0 0 .0625 0 13.439)"><stop offset="0" stop-color="#607d8b"/><stop offset="1" stop-color="#78909c"/></linearGradient><linearGradient id="g" gradientUnits="userSpaceOnUse" x1="960" y1="1735.118" x2="960" y2="175.118" gradientTransform="rotate(.891) scale(.01654)"><stop offset="0" stop-color="#8d6e63"/><stop offset="1" stop-color="#ff7043"/></linearGradient></defs><path d="M5.125 28.035h21.668v1.32H5.125zm0 0" fill="url(#a)"/><path d="M26.793 28.035h2.645v-1.324h-2.645zm0 0" fill="url(#b)"/><path d="M5.125 28.035H2.48v1.32h2.645zm0 0" fill="url(#c)"/><path d="M5.125 28.035H2.48v-1.324h2.645zm0 0" fill="url(#d)"/><path d="M26.793 28.035h2.645v1.32h-2.645zm0 0" fill="url(#e)"/><path d="M3.309 2.895h25.136c.73 0 1.325.593 1.325 1.324V26.71c0 .73-.594 1.324-1.325 1.324H3.31c-.73 0-1.325-.594-1.325-1.324V4.219c0-.73.594-1.324 1.325-1.324zm0 0" fill="url(#f)"/><path d="M3.309 2.895a1.32 1.32 0 0 0-1.325 1.324v.332c0-.735.59-1.324 1.325-1.324h25.136c.735 0 1.325.59 1.325 1.324v-.332a1.32 1.32 0 0 0-1.325-1.324zm0 0" fill="#fff" fill-opacity=".392"/><path d="M3.309 28.035a1.32 1.32 0 0 1-1.325-1.324v-.332c0 .734.59 1.324 1.325 1.324h25.136a1.32 1.32 0 0 0 1.325-1.324v.332a1.32 1.32 0 0 1-1.325 1.324zm0 0" fill-opacity=".235"/><path d="M3.309 2.8c-.786 0-1.418.638-1.418 1.419V26.71c0 .785.632 1.418 1.418 1.418h25.136c.785 0 1.418-.633 1.418-1.418V4.219c0-.782-.633-1.418-1.418-1.418zm0 .188h25.136c.684 0 1.23.547 1.23 1.23v22.493c0 .684-.546 1.23-1.23 1.23H3.31c-.684 0-1.23-.546-1.23-1.23V4.219c0-.684.546-1.23 1.23-1.23zm0 0" fill="#212121"/><path d="M1.984 4.219v6.617h3.97a1.31 1.31 0 0 0 1.323-1.3V5.52c0-.72-.59-1.301-1.324-1.301zm7.938 0c-.73 0-1.32.582-1.32 1.3v4.016c0 .719.59 1.3 1.32 1.3h11.91c.73 0 1.32-.581 1.32-1.3V5.52c0-.72-.59-1.301-1.32-1.301zm15.879 0a1.31 1.31 0 0 0-1.324 1.3v4.016c0 .719.59 1.3 1.324 1.3h3.969V4.22zM1.984 12.156v6.617h11.907a1.31 1.31 0 0 0 1.324-1.3v-4.016c0-.719-.59-1.3-1.324-1.3zm15.875 0c-.73 0-1.32.582-1.32 1.301v4.016c0 .718.59 1.3 1.32 1.3h11.91v-6.617zM1.984 20.094v6.617h3.97c.734 0 1.323-.578 1.323-1.3v-4.016c0-.72-.59-1.301-1.324-1.301zm7.938 0c-.73 0-1.32.582-1.32 1.3v4.016c0 .723.59 1.3 1.32 1.3h11.91c.73 0 1.32-.577 1.32-1.3v-4.015c0-.72-.59-1.301-1.32-1.301zm15.879 0a1.31 1.31 0 0 0-1.324 1.3v4.016c0 .723.59 1.3 1.324 1.3h3.969v-6.616zm0 0" fill="url(#g)"/><path d="M1.984 4.219v.332h3.97c.734 0 1.323.578 1.323 1.3V5.52c0-.72-.59-1.301-1.324-1.301zm7.938 0c-.73 0-1.32.582-1.32 1.3v.333c0-.723.59-1.301 1.32-1.301h11.91c.73 0 1.32.578 1.32 1.3V5.52c0-.72-.59-1.301-1.32-1.301zm15.879 0a1.31 1.31 0 0 0-1.324 1.3v.333c0-.723.59-1.301 1.324-1.301h3.969v-.332zM1.984 12.156v.332h11.907c.734 0 1.324.578 1.324 1.301v-.332c0-.719-.59-1.3-1.324-1.3zm15.875 0c-.73 0-1.32.582-1.32 1.301v.332c0-.723.59-1.3 1.32-1.3h11.91v-.333zM1.984 20.094v.332h3.97a1.31 1.31 0 0 1 1.323 1.3v-.331c0-.72-.59-1.301-1.324-1.301zm7.938 0c-.73 0-1.32.582-1.32 1.3v.333c0-.72.59-1.301 1.32-1.301h11.91c.73 0 1.32.582 1.32 1.3v-.331c0-.72-.59-1.301-1.32-1.301zm15.879 0a1.31 1.31 0 0 0-1.324 1.3v.333c0-.72.59-1.301 1.324-1.301h3.969v-.332zm0 0" fill="#fff" fill-opacity=".392"/><path d="M1.984 26.688v-.333h3.97c.734 0 1.323-.578 1.323-1.296v.328c0 .722-.59 1.3-1.324 1.3zm7.938 0c-.73 0-1.32-.579-1.32-1.301v-.328c0 .718.59 1.296 1.32 1.296h11.91c.73 0 1.32-.578 1.32-1.296v.328c0 .722-.59 1.3-1.32 1.3zm15.879 0a1.308 1.308 0 0 1-1.324-1.301v-.328c0 .718.59 1.296 1.324 1.296h3.969v.332zM1.984 18.75v-.332h11.907c.734 0 1.324-.578 1.324-1.3v.331c0 .719-.59 1.301-1.324 1.301zm15.875 0a1.31 1.31 0 0 1-1.32-1.3v-.333c0 .723.59 1.301 1.32 1.301h11.91v.332zM1.984 10.812v-.332h3.97c.734 0 1.323-.578 1.323-1.3v.332c0 .718-.59 1.3-1.324 1.3zm7.938 0a1.31 1.31 0 0 1-1.32-1.3V9.18c0 .722.59 1.3 1.32 1.3h11.91c.73 0 1.32-.578 1.32-1.3v.332c0 .718-.59 1.3-1.32 1.3zm15.879 0a1.31 1.31 0 0 1-1.324-1.3V9.18c0 .722.59 1.3 1.324 1.3h3.969v.332zm0 0" fill-opacity=".235"/><path d="M1.984 4.125a.095.095 0 0 0-.093.094v6.617c0 .05.043.094.093.094h3.97c.78 0 1.417-.625 1.417-1.395V5.52c0-.774-.637-1.395-1.418-1.395zm7.938 0c-.781 0-1.414.621-1.414 1.395v4.015c0 .77.633 1.395 1.414 1.395h11.91c.781 0 1.414-.625 1.414-1.395V5.52c0-.774-.633-1.395-1.414-1.395zm15.879 0c-.785 0-1.418.621-1.418 1.395v4.015c0 .77.633 1.395 1.418 1.395h3.969c.05 0 .093-.043.093-.094V4.219a.095.095 0 0 0-.093-.094zm-23.723.188h3.875c.684 0 1.23.539 1.23 1.207v4.015c0 .668-.546 1.207-1.23 1.207H2.078zm7.844 0h11.91c.684 0 1.227.539 1.227 1.207v4.015c0 .668-.543 1.207-1.227 1.207H9.922c-.684 0-1.227-.539-1.227-1.207V5.52c0-.668.543-1.207 1.227-1.207zm15.879 0h3.875v6.43H25.8c-.684 0-1.23-.54-1.23-1.208V5.52c0-.668.546-1.207 1.23-1.207zm-23.817 7.75a.095.095 0 0 0-.093.093v6.617c0 .051.043.094.093.094h11.907c.785 0 1.418-.62 1.418-1.394v-4.016c0-.77-.633-1.395-1.418-1.395zm15.875 0c-.78 0-1.414.624-1.414 1.394v4.016c0 .773.633 1.394 1.414 1.394h11.91c.051 0 .094-.043.094-.094v-6.617a.095.095 0 0 0-.093-.094zm-15.78.187H13.89c.683 0 1.23.54 1.23 1.207v4.016c0 .668-.547 1.207-1.23 1.207H2.078zm15.78 0h11.817v6.43H17.859c-.683 0-1.226-.54-1.226-1.207v-4.016c0-.668.543-1.207 1.226-1.207zM1.984 20a.095.095 0 0 0-.093.094v6.617c0 .05.043.094.093.094h3.97c.78 0 1.417-.621 1.417-1.395v-4.015c0-.77-.637-1.395-1.418-1.395zm7.938 0c-.781 0-1.414.625-1.414 1.395v4.015c0 .774.633 1.395 1.414 1.395h11.91c.781 0 1.414-.621 1.414-1.395v-4.015c0-.77-.633-1.395-1.414-1.395zM25.8 20c-.785 0-1.418.625-1.418 1.395v4.015c0 .774.633 1.395 1.418 1.395h3.969c.05 0 .093-.043.093-.094v-6.617A.095.095 0 0 0 29.77 20zm-23.723.188h3.875c.684 0 1.23.539 1.23 1.207v4.015c0 .668-.546 1.207-1.23 1.207H2.078zm7.844 0h11.91c.684 0 1.227.539 1.227 1.207v4.015c0 .668-.543 1.207-1.227 1.207H9.922c-.684 0-1.227-.539-1.227-1.207v-4.015c0-.668.543-1.207 1.227-1.207zm15.879 0h3.875v6.43H25.8c-.684 0-1.23-.54-1.23-1.208v-4.015c0-.668.546-1.207 1.23-1.207zm0 0" fill="#212121"/></svg>
